source/sprite/dashboard.svg

<svg xmlns="http://www.w3.org/2000/svg" viewBox="0 0 286.054 286.054">
  <path d="M277.115 107.27H223.48c-4.943 0-8.94 3.996-8.94 8.94v53.634c0 4.943 3.997 8.94 8.94 8.94h53.635c4.943 0 8.94-3.997 8.94-8.94V116.21c0-4.944-3.997-8.94-8.94-8.94zm0-107.27H223.48c-4.943 0-8.94 4.005-8.94 8.94v53.634c0 4.943 3.997 8.94 8.94 8.94h53.635c4.943 0 8.94-3.997 8.94-8.94V8.94c0-4.935-3.997-8.94-8.94-8.94zM62.575 0H8.938C4.004 0 0 4.005 0 8.94v53.634c0 4.943 4.005 8.94 8.94 8.94h53.634c4.934 0 8.94-3.997 8.94-8.94V8.94c0-4.935-4.005-8.94-8.94-8.94zm0 107.27H8.938c-4.935 0-8.94 3.996-8.94 8.94v53.634c0 4.943 4.005 8.94 8.94 8.94h53.634c4.934 0 8.94-3.997 8.94-8.94V116.21c0-4.944-4.005-8.94-8.94-8.94zm214.54 107.27H223.48c-4.943 0-8.94 3.996-8.94 8.94v53.634c0 4.943 3.997 8.94 8.94 8.94h53.635c4.943 0 8.94-3.997 8.94-8.94V223.48c0-4.944-3.997-8.94-8.94-8.94zm-214.54 0H8.938c-4.935 0-8.94 3.996-8.94 8.94v53.635c0 4.943 4.005 8.94 8.94 8.94h53.634c4.934 0 8.94-3.997 8.94-8.94V223.48c0-4.944-4.005-8.94-8.94-8.94zm107.27-107.27H116.21c-4.936 0-8.94 3.996-8.94 8.94v53.634c0 4.943 4.004 8.94 8.94 8.94h53.633c4.943 0 8.94-3.997 8.94-8.94V116.21c0-4.944-3.996-8.94-8.94-8.94zm0-107.27H116.21c-4.936 0-8.94 4.005-8.94 8.94v53.634c0 4.943 4.004 8.94 8.94 8.94h53.633c4.943 0 8.94-3.997 8.94-8.94V8.94c0-4.935-3.996-8.94-8.94-8.94zm0 214.54H116.21c-4.936 0-8.94 3.996-8.94 8.94v53.634c0 4.943 4.004 8.94 8.94 8.94h53.633c4.943 0 8.94-3.997 8.94-8.94V223.48c0-4.944-3.996-8.94-8.94-8.94z"/>
</svg>

<?xml version="1.0" encoding="iso-8859-1"?>
<!-- Generator: Adobe Illustrator 19.0.0, SVG Export Plug-In . SVG Version: 6.00 Build 0)  -->
<svg version="1.1" id="Layer_1" xmlns="http://www.w3.org/2000/svg" xmlns:xlink="http://www.w3.org/1999/xlink" x="0px" y="0px"
	 viewBox="0 0 286.054 286.054" style="enable-background:new 0 0 286.054 286.054;" xml:space="preserve">
<g>
	<path d="M277.115,107.27H223.48c-4.943,0-8.939,3.996-8.939,8.939v53.635c0,4.943,3.996,8.939,8.939,8.939
		h53.635c4.943,0,8.939-3.996,8.939-8.939v-53.635C286.054,111.266,282.058,107.27,277.115,107.27z M277.115,0H223.48
		c-4.943,0-8.939,4.005-8.939,8.939v53.635c0,4.943,3.996,8.939,8.939,8.939h53.635c4.943,0,8.939-3.996,8.939-8.939V8.939
		C286.054,4.005,282.058,0,277.115,0z M62.574,0H8.939C4.005,0,0,4.005,0,8.939v53.635c0,4.943,4.005,8.939,8.939,8.939h53.635
		c4.934,0,8.939-3.996,8.939-8.939V8.939C71.513,4.005,67.509,0,62.574,0z M62.574,107.27H8.939c-4.934,0-8.939,3.996-8.939,8.939
		v53.635c0,4.943,4.005,8.939,8.939,8.939h53.635c4.934,0,8.939-3.996,8.939-8.939v-53.635
		C71.513,111.266,67.509,107.27,62.574,107.27z M277.115,214.54H223.48c-4.943,0-8.939,3.996-8.939,8.939v53.635
		c0,4.943,3.996,8.939,8.939,8.939h53.635c4.943,0,8.939-3.996,8.939-8.939V223.48C286.054,218.536,282.058,214.54,277.115,214.54z
		 M62.574,214.54H8.939c-4.934,0-8.939,3.996-8.939,8.94v53.635c0,4.943,4.005,8.939,8.939,8.939h53.635
		c4.934,0,8.939-3.996,8.939-8.939V223.48C71.513,218.536,67.509,214.54,62.574,214.54z M169.844,107.27h-53.635
		c-4.934,0-8.939,3.996-8.939,8.939v53.635c0,4.943,4.005,8.939,8.939,8.939h53.635c4.943,0,8.939-3.996,8.939-8.939v-53.635
		C178.784,111.266,174.788,107.27,169.844,107.27z M169.844,0h-53.635c-4.934,0-8.939,4.005-8.939,8.939v53.635
		c0,4.943,4.005,8.939,8.939,8.939h53.635c4.943,0,8.939-3.996,8.939-8.939V8.939C178.784,4.005,174.788,0,169.844,0z
		 M169.844,214.54h-53.635c-4.934,0-8.939,3.996-8.939,8.939v53.635c0,4.943,4.005,8.939,8.939,8.939h53.635
		c4.943,0,8.939-3.996,8.939-8.939V223.48C178.784,218.536,174.788,214.54,169.844,214.54z"/>
</g>
<g>
</g>
<g>
</g>
<g>
</g>
<g>
</g>
<g>
</g>
<g>
</g>
<g>
</g>
<g>
</g>
<g>
</g>
<g>
</g>
<g>
</g>
<g>
</g>
<g>
</g>
<g>
</g>
<g>
</g>
</svg>
